;FLAVOR:Marlin
;TIME:19361
;Filament used: 23.0333m
;Layer height: 0.2
;Generated with Cura_SteamEngine 3.4.1
M190 S60
M104 S200
M109 S200
M82 ;absolute extrusion mode
G28 ;Home
G1 Z15.0 F6000 ;Move the platform down 15mm
;Prime the extruder
G92 E0
G1 F200 E3
G92 E0
G92 E0
G1 F2400 E-5
;LAYER_COUNT:26
;LAYER:0
M107
M204 S5000
M205 X30 Y30
G0 F3600 X25.595 Y22.347 Z0.2
M204 S500
M205 X20 Y20
;TYPE:SKIRT
G1 F2400 E0
G1 F1800 X26.385 Y21.56 E0.03709
G1 X26.972 Y21.032 E0.06335
G1 X27.754 Y20.473 E0.09532
G1 X28.702 Y19.88 E0.13251
G1 X29.391 Y19.496 E0.15875
G1 X30.278 Y19.125 E0.19072
G1 X31.34 Y18.756 E0.22812
G1 X32.098 Y18.535 E0.25438
G1 X33.032 Y18.372 E0.28591
G1 X34.14 Y18.248 E0.323
G1 X35.008 Y18.2 E0.35191
G1 X185.003 Y18.201 E5.34076
G1 X185.888 Y18.251 E5.37025
G1 X187.009 Y18.379 E5.40777
G1 X187.788 Y18.509 E5.43404
G1 X188.724 Y18.775 E5.4664
G1 X189.782 Y19.149 E5.50373
G1 X190.512 Y19.45 E5.52999
G1 X191.348 Y19.909 E5.56171
G1 X192.293 Y20.506 E5.59889
G1 X192.938 Y20.961 E5.62514
G1 X193.653 Y21.595 E5.65693
G1 X194.44 Y22.385 E5.69401
G1 X194.968 Y22.972 E5.72027
G1 X195.527 Y23.754 E5.75225
G1 X196.12 Y24.702 E5.78944
G1 X196.504 Y25.391 E5.81567
G1 X196.874 Y26.276 E5.84758
G1 X197.244 Y27.34 E5.88504
G1 X197.466 Y28.098 E5.91131
G1 X197.629 Y29.038 E5.94305
G1 X197.752 Y30.142 E5.97999
G1 X197.8 Y31.006 E6.00877
G1 X197.799 Y189.003 E11.26377
G1 X197.749 Y189.883 E11.29309
G1 X197.622 Y191.002 E11.33055
G1 X197.494 Y191.781 E11.3568
G1 X197.225 Y192.723 E11.38939
G1 X196.85 Y193.783 E11.42678
G1 X196.55 Y194.514 E11.45307
G1 X196.091 Y195.348 E11.48473
G1 X195.494 Y196.293 E11.52191
G1 X195.039 Y196.938 E11.54816
G1 X194.405 Y197.653 E11.57994
G1 X193.615 Y198.44 E11.61703
G1 X193.028 Y198.968 E11.64329
G1 X192.246 Y199.527 E11.67526
G1 X191.298 Y200.12 E11.71245
G1 X190.609 Y200.504 E11.73869
G1 X189.722 Y200.875 E11.77067
G1 X188.66 Y201.244 E11.80806
G1 X187.902 Y201.465 E11.83432
G1 X186.968 Y201.628 E11.86586
G1 X185.86 Y201.752 E11.90294
G1 X184.992 Y201.8 E11.93185
G1 X34.997 Y201.799 E16.92071
G1 X34.112 Y201.749 E16.95019
G1 X32.991 Y201.621 E16.98772
G1 X32.212 Y201.491 E17.01398
G1 X31.276 Y201.225 E17.04635
G1 X30.218 Y200.851 E17.08367
G1 X29.488 Y200.55 E17.10993
G1 X28.652 Y200.091 E17.14165
G1 X27.707 Y199.494 E17.17883
G1 X27.062 Y199.039 E17.20509
G1 X26.347 Y198.405 E17.23687
G1 X25.56 Y197.615 E17.27396
G1 X25.032 Y197.028 E17.30022
G1 X24.473 Y196.246 E17.33219
G1 X23.88 Y195.298 E17.36938
G1 X23.496 Y194.609 E17.39561
G1 X23.126 Y193.724 E17.42752
G1 X22.756 Y192.66 E17.46499
G1 X22.534 Y191.902 E17.49126
G1 X22.371 Y190.962 E17.52299
G1 X22.248 Y189.858 E17.55993
G1 X22.2 Y188.994 E17.58872
G1 X22.201 Y30.997 E22.84372
G1 X22.251 Y30.117 E22.87303
G1 X22.378 Y28.998 E22.91049
G1 X22.506 Y28.219 E22.93675
G1 X22.775 Y27.277 E22.96933
G1 X23.15 Y26.217 E23.00673
G1 X23.45 Y25.486 E23.03301
G1 X23.909 Y24.652 E23.06467
G1 X24.506 Y23.707 E23.10185
G1 X24.961 Y23.062 E23.1281
G1 X25.595 Y22.347 E23.15989
M204 S5000
M205 X30 Y30
G0 F3600 X25.877 Y22.63
M204 S500
M205 X20 Y20
G1 F1800 X26.667 Y21.843 E23.19697
G1 X27.24 Y21.33 E23.22255
G1 X27.966 Y20.812 E23.25222
G1 X28.914 Y20.219 E23.28941
G1 X29.586 Y19.846 E23.31497
G1 X30.409 Y19.503 E23.34463
G1 X31.471 Y19.134 E23.38202
G1 X32.21 Y18.92 E23.40761
G1 X33.077 Y18.77 E23.43687
G1 X34.185 Y18.646 E23.47396
G1 X35.008 Y18.6 E23.50137
G1 X185.003 Y18.601 E28.49023
G1 X185.843 Y18.649 E28.51821
G1 X186.964 Y18.777 E28.55574
G1 X187.722 Y18.904 E28.5813
G1 X188.59 Y19.152 E28.61133
G1 X189.648 Y19.526 E28.64865
G1 X190.359 Y19.82 E28.67424
G1 X191.134 Y20.247 E28.70367
G1 X192.079 Y20.844 E28.74085
G1 X192.707 Y21.288 E28.76643
G1 X193.37 Y21.877 E28.79592
G1 X194.157 Y22.667 E28.83301
G1 X194.67 Y23.24 E28.85859
G1 X195.188 Y23.966 E28.88825
G1 X195.781 Y24.914 E28.92545
G1 X196.154 Y25.586 E28.95101
G1 X196.496 Y26.407 E28.98059
G1 X196.866 Y27.471 E29.01806
G1 X197.081 Y28.21 E29.04366
G1 X197.231 Y29.083 E29.07312
G1 X197.354 Y30.187 E29.11006
G1 X197.4 Y31.006 E29.13735
G1 X197.399 Y189.003 E34.39235
G1 X197.352 Y189.837 E34.42013
G1 X197.225 Y190.956 E34.45759
G1 X197.098 Y191.715 E34.48318
G1 X196.848 Y192.59 E34.51345
G1 X196.473 Y193.65 E34.55085
G1 X196.179 Y194.361 E34.57644
G1 X195.753 Y195.134 E34.60579
G1 X195.156 Y196.079 E34.64297
G1 X194.712 Y196.707 E34.66855
G1 X194.123 Y197.37 E34.69805
G1 X193.333 Y198.157 E34.73514
G1 X192.76 Y198.67 E34.76072
G1 X192.034 Y199.188 E34.79038
G1 X191.086 Y199.781 E34.82757
G1 X190.414 Y200.154 E34.85313
G1 X189.591 Y200.497 E34.88279
G1 X188.529 Y200.866 E34.92018
G1 X187.79 Y201.08 E34.94577
G1 X186.923 Y201.23 E34.97504
G1 X185.815 Y201.354 E35.01212
G1 X184.992 Y201.4 E35.03954
G1 X34.997 Y201.399 E40.02839
G1 X34.157 Y201.351 E40.05637
G1 X33.036 Y201.223 E40.0939
G1 X32.278 Y201.096 E40.11946
G1 X31.41 Y200.848 E40.14949
G1 X30.352 Y200.474 E40.18681
G1 X29.641 Y200.18 E40.2124
G1 X28.866 Y199.753 E40.24183
G1 X27.921 Y199.156 E40.27901
G1 X27.293 Y198.712 E40.30459
G1 X26.63 Y198.123 E40.33409
G1 X25.843 Y197.333 E40.37117
G1 X25.33 Y196.76 E40.39675
G1 X24.812 Y196.034 E40.42642
G1 X24.219 Y195.086 E40.46361
G1 X23.846 Y194.414 E40.48917
G1 X23.504 Y193.593 E40.51875
G1 X23.134 Y192.529 E40.55622
G1 X22.919 Y191.79 E40.58182
G1 X22.769 Y190.917 E40.61128
G1 X22.646 Y189.813 E40.64823
G1 X22.6 Y188.994 E40.67551
G1 X22.601 Y30.997 E45.93051
G1 X22.648 Y30.163 E45.95829
G1 X22.775 Y29.044 E45.99575
G1 X22.902 Y28.285 E46.02135
G1 X23.152 Y27.41 E46.05161
G1 X23.527 Y26.35 E46.08901
G1 X23.821 Y25.639 E46.1146
G1 X24.247 Y24.866 E46.14396
G1 X24.844 Y23.921 E46.18113
G1 X25.288 Y23.293 E46.20671
G1 X25.877 Y22.63 E46.23621
M204 S5000
M205 X30 Y30
G0 F3600 X26.16 Y22.914
M204 S500
M205 X20 Y20
G1 F1800 X26.95 Y22.127 E46.2733
G1 X27.507 Y21.628 E46.29817
G1 X28.178 Y21.151 E46.32555
G1 X29.126 Y20.558 E46.36275
G1 X29.78 Y20.196 E46.38761
G1 X30.541 Y19.881 E46.415
G1 X31.603 Y19.512 E46.45239
G1 X32.321 Y19.304 E46.47726
G1 X33.121 Y19.167 E46.50425
G1 X34.229 Y19.043 E46.54134
G1 X35.008 Y19 E46.56728
G1 X185.003 Y19.001 E51.55614
G1 X185.797 Y19.046 E51.58259
G1 X186.918 Y19.174 E51.62012
G1 X187.656 Y19.299 E51.64501
G1 X188.457 Y19.529 E51.67273
G1 X189.515 Y19.903 E51.71005
G1 X190.206 Y20.19 E51.73494
G1 X190.921 Y20.585 E51.76211
G1 X191.866 Y21.182 E51.79929
G1 X192.476 Y21.615 E51.82417
G1 X193.086 Y22.16 E51.85137
G1 X193.873 Y22.95 E51.88846
G1 X194.372 Y23.507 E51.91333
G1 X194.849 Y24.178 E51.94072
G1 X195.442 Y25.126 E51.97791
G1 X195.804 Y25.78 E52.00277
G1 X196.119 Y26.539 E52.0301
G1 X196.489 Y27.603 E52.06757
G1 X196.696 Y28.322 E52.09245
G1 X196.834 Y29.127 E52.11962
G1 X196.957 Y30.231 E52.15657
G1 X197 Y31.006 E52.18238
G1 X196.999 Y189.003 E57.43738
G1 X196.954 Y189.792 E57.46367
G1 X196.827 Y190.911 E57.50113
G1 X196.703 Y191.649 E57.52602
G1 X196.471 Y192.457 E57.55398
G1 X196.096 Y193.517 E57.59137
G1 X195.809 Y194.208 E57.61626
G1 X195.415 Y194.921 E57.64335
G1 X194.818 Y195.866 E57.68053
G1 X194.385 Y196.476 E57.70541
G1 X193.84 Y197.086 E57.73262
G1 X193.05 Y197.873 E57.76971
G1 X192.493 Y198.372 E57.79458
G1 X191.822 Y198.849 E57.82196
G1 X190.874 Y199.442 E57.85915
G1 X190.22 Y199.804 E57.88401
G1 X189.459 Y200.119 E57.91141
G1 X188.397 Y200.488 E57.9488
G1 X187.679 Y200.696 E57.97366
G1 X186.879 Y200.833 E58.00066
G1 X185.771 Y200.957 E58.03774
G1 X184.992 Y201 E58.06369
G1 X34.997 Y200.999 E63.05255
G1 X34.203 Y200.954 E63.079
G1 X33.082 Y200.826 E63.11652
G1 X32.344 Y200.701 E63.14142
G1 X31.543 Y200.471 E63.16914
G1 X30.485 Y200.097 E63.20646
G1 X29.794 Y199.81 E63.23135
G1 X29.079 Y199.415 E63.25851
G1 X28.134 Y198.818 E63.29569
G1 X27.524 Y198.385 E63.32057
G1 X26.914 Y197.84 E63.34778
G1 X26.127 Y197.05 E63.38487
G1 X25.628 Y196.493 E63.40974
G1 X25.151 Y195.822 E63.43712
G1 X24.558 Y194.874 E63.47431
G1 X24.196 Y194.22 E63.49918
G1 X23.881 Y193.461 E63.52651
G1 X23.511 Y192.397 E63.56398
G1 X23.304 Y191.678 E63.58886
G1 X23.166 Y190.873 E63.61603
G1 X23.043 Y189.769 E63.65297
G1 X23 Y188.994 E63.67879
G1 X23.001 Y30.997 E68.93379
G1 X23.046 Y30.208 E68.96008
G1 X23.173 Y29.089 E68.99753
G1 X23.297 Y28.351 E69.02242
G1 X23.529 Y27.543 E69.05038
G1 X23.904 Y26.483 E69.08778
G1 X24.191 Y25.792 E69.11267
G1 X24.585 Y25.079 E69.13976
G1 X25.182 Y24.134 E69.17694
G1 X25.615 Y23.524 E69.20182
G1 X26.16 Y22.914 E69.22903
M204 S5000
M205 X30 Y30
G0 F3600 X26.442 Y23.197
M204 S500
M205 X20 Y20
G1 F1800 X27.232 Y22.41 E69.26611
G1 X27.774 Y21.927 E69.29026
G1 X28.39 Y21.491 E69.31536
G1 X29.338 Y20.898 E69.35255
G1 X29.974 Y20.547 E69.37671
G1 X30.672 Y20.259 E69.40183
G1 X31.734 Y19.89 E69.43922
G1 X32.432 Y19.689 E69.46338
G1 X33.166 Y19.565 E69.48814
G1 X34.274 Y19.441 E69.52522
G1 X35.008 Y19.4 E69.54967
G1 X185.003 Y19.401 E74.53853
G1 X185.752 Y19.444 E74.56348
G1 X186.873 Y19.572 E74.60101
G1 X187.589 Y19.694 E74.62516
G1 X188.324 Y19.906 E74.65061
G1 X189.382 Y20.28 E74.68793
G1 X190.052 Y20.56 E74.71208
G1 X190.707 Y20.923 E74.73699
G1 X191.652 Y21.52 E74.77417
G1 X192.244 Y21.941 E74.79833
G1 X192.803 Y22.442 E74.82329
G1 X193.59 Y23.232 E74.86038
G1 X194.073 Y23.774 E74.88453
G1 X194.509 Y24.39 E74.90963
G1 X195.102 Y25.338 E74.94682
G1 X195.453 Y25.974 E74.97098
G1 X195.741 Y26.67 E74.99604
G1 X196.111 Y27.734 E75.0335
G1 X196.311 Y28.432 E75.05765
G1 X196.436 Y29.171 E75.08258
G1 X196.559 Y30.275 E75.11953
G1 X196.6 Y31.006 E75.14388
G1 X196.599 Y189.003 E80.39888
G1 X196.557 Y189.747 E80.42367
G1 X196.43 Y190.866 E80.46112
G1 X196.308 Y191.582 E80.48528
G1 X196.094 Y192.323 E80.51093
G1 X195.719 Y193.383 E80.54833
G1 X195.44 Y194.054 E80.5725
G1 X195.077 Y194.707 E80.59735
G1 X194.48 Y195.652 E80.63453
G1 X194.059 Y196.244 E80.65869
G1 X193.558 Y196.803 E80.68365
G1 X192.768 Y197.59 E80.72074
G1 X192.226 Y198.073 E80.74489
G1 X191.61 Y198.509 E80.76999
G1 X190.662 Y199.102 E80.80718
G1 X190.026 Y199.453 E80.83134
G1 X189.328 Y199.741 E80.85646
G1 X188.266 Y200.11 E80.89385
G1 X187.568 Y200.311 E80.91801
G1 X186.834 Y200.435 E80.94277
G1 X185.726 Y200.559 E80.97985
G1 X184.992 Y200.6 E81.0043
G1 X34.997 Y200.599 E85.99316
G1 X34.248 Y200.556 E86.01811
G1 X33.127 Y200.428 E86.05564
G1 X32.411 Y200.306 E86.07979
G1 X31.676 Y200.094 E86.10524
G1 X30.618 Y199.72 E86.14256
G1 X29.948 Y199.44 E86.16671
G1 X29.293 Y199.077 E86.19162
G1 X28.348 Y198.48 E86.2288
G1 X27.756 Y198.059 E86.25296
G1 X27.197 Y197.558 E86.27792
G1 X26.41 Y196.768 E86.31501
G1 X25.927 Y196.226 E86.33916
G1 X25.491 Y195.61 E86.36426
G1 X24.898 Y194.662 E86.40145
G1 X24.547 Y194.026 E86.42561
G1 X24.259 Y193.33 E86.45066
G1 X23.889 Y192.266 E86.48813
G1 X23.689 Y191.568 E86.51228
G1 X23.564 Y190.829 E86.53721
G1 X23.441 Y189.725 E86.57416
G1 X23.4 Y188.994 E86.59851
G1 X23.401 Y30.997 E91.85351
G1 X23.443 Y30.253 E91.87829
G1 X23.57 Y29.134 E91.91575
G1 X23.692 Y28.418 E91.93991
G1 X23.906 Y27.677 E91.96556
G1 X24.281 Y26.617 E92.00296
G1 X24.56 Y25.946 E92.02713
G1 X24.923 Y25.293 E92.05198
G1 X25.52 Y24.348 E92.08916
G1 X25.941 Y23.756 E92.11332
G1 X26.442 Y23.197 E92.13828
M204 S5000
M205 X30 Y30
G0 F3600 X26.724 Y23.481
M204 S500
M205 X20 Y20
G1 F1800 X27.514 Y22.694 E92.17537
G1 X28.04 Y22.226 E92.19879
G1 X28.602 Y21.83 E92.22166
G1 X29.55 Y21.237 E92.25885
G1 X30.167 Y20.898 E92.28226
G1 X30.803 Y20.636 E92.30514
G1 X31.865 Y20.267 E92.34253
G1 X32.542 Y20.075 E92.36594
G1 X33.21 Y19.962 E92.38847
G1 X34.318 Y19.838 E92.42555
G1 X35.008 Y19.8 E92.44854
G1 X185.003 Y19.801 E97.43739
G1 X185.706 Y19.841 E97.46081
G1 X186.827 Y19.969 E97.49834
G1 X187.521 Y20.088 E97.52176
G1 X188.19 Y20.283 E97.54494
G1 X189.248 Y20.657 E97.58226
G1 X189.898 Y20.929 E97.60569
G1 X190.493 Y21.261 E97.62836
G1 X191.438 Y21.858 E97.66553
G1 X192.011 Y22.268 E97.68897
G1 X192.519 Y22.724 E97.71167
G1 X193.306 Y23.514 E97.74876
G1 X193.774 Y24.04 E97.77218
G1 X194.17 Y24.602 E97.79505
G1 X194.763 Y25.55 E97.83224
G1 X195.102 Y26.167 E97.85565
G1 X195.363 Y26.802 E97.87849
G1 X195.733 Y27.866 E97.91595
G1 X195.926 Y28.543 E97.93937
G1 X196.039 Y29.215 E97.96203
G1 X196.162 Y30.319 E97.99898
G1 X196.2 Y31.006 E98.02186
G1 X196.199 Y189.003 E103.27687
G1 X196.159 Y189.702 E103.30015
G1 X196.032 Y190.821 E103.33761
G1 X195.913 Y191.515 E103.36103
G1 X195.717 Y192.19 E103.38441
G1 X195.342 Y193.25 E103.4218
G1 X195.07 Y193.899 E103.44521
G1 X194.739 Y194.493 E103.46783
G1 X194.142 Y195.438 E103.505
G1 X193.732 Y196.011 E103.52844
G1 X193.276 Y196.519 E103.55114
G1 X192.486 Y197.306 E103.58823
G1 X191.96 Y197.774 E103.61165
G1 X191.398 Y198.17 E103.63451
G1 X190.45 Y198.763 E103.67171
G1 X189.833 Y199.102 E103.69512
G1 X189.197 Y199.364 E103.718
G1 X188.135 Y199.733 E103.75539
G1 X187.458 Y199.925 E103.7788
G1 X186.79 Y200.038 E103.80133
G1 X185.682 Y200.162 E103.83841
G1 X184.992 Y200.2 E103.8614
G1 X34.997 Y200.199 E108.85025
G1 X34.294 Y200.159 E108.87367
G1 X33.173 Y200.031 E108.9112
G1 X32.479 Y199.912 E108.93462
G1 X31.81 Y199.717 E108.95779
G1 X30.752 Y199.343 E108.99512
G1 X30.102 Y199.071 E109.01855
G1 X29.507 Y198.739 E109.04121
G1 X28.562 Y198.142 E109.07839
G1 X27.989 Y197.732 E109.10183
G1 X27.481 Y197.276 E109.12453
G1 X26.694 Y196.486 E109.16162
G1 X26.226 Y195.96 E109.18504
G1 X25.83 Y195.398 E109.2079
G1 X25.237 Y194.45 E109.24509
G1 X24.898 Y193.833 E109.26851
G1 X24.637 Y193.198 E109.29134
G1 X24.267 Y192.134 E109.32881
G1 X24.074 Y191.457 E109.35223
G1 X23.961 Y190.785 E109.37489
G1 X23.838 Y189.681 E109.41184
G1 X23.8 Y188.994 E109.43472
G1 X23.801 Y30.997 E114.68972
G1 X23.841 Y30.298 E114.71301
G1 X23.968 Y29.179 E114.75047
G1 X24.087 Y28.485 E114.77389
G1 X24.283 Y27.81 E114.79726
G1 X24.658 Y26.75 E114.83466
G1 X24.93 Y26.101 E114.85807
G1 X25.261 Y25.507 E114.88068
G1 X25.858 Y24.562 E114.91786
G1 X26.268 Y23.989 E114.9413
G1 X26.724 Y23.481 E114.964
M204 S5000
M205 X30 Y30
G0 F3600 X27.007 Y23.764
M204 S500
M205 X20 Y20
G1 F1800 X27.797 Y22.977 E115.00109
G1 X28.306 Y22.526 E115.02371
G1 X28.814 Y22.169 E115.04436
G1 X29.762 Y21.576 E115.08155
G1 X30.36 Y21.249 E115.10422
G1 X30.934 Y21.014 E115.12485
G1 X31.996 Y20.645 E115.16224
G1 X32.652 Y20.46 E115.18491
G1 X33.255 Y20.36 E115.20524
G1 X34.363 Y20.236 E115.24232
G1 X35.008 Y20.2 E115.26381
G1 X185.003 Y20.201 E120.25266
G1 X185.661 Y20.238 E120.27458
G1 X186.782 Y20.366 E120.31211
G1 X187.453 Y20.483 E120.33476
G1 X188.057 Y20.661 E120.35571
G1 X189.115 Y21.035 E120.39303
G1 X189.743 Y21.299 E120.41569
G1 X190.28 Y21.6 E120.43616
G1 X191.225 Y22.197 E120.47334
G1 X191.778 Y22.593 E120.49596
G1 X192.236 Y23.007 E120.5165
G1 X193.023 Y23.797 E120.55359
G1 X193.474 Y24.306 E120.57621
G1 X193.831 Y24.814 E120.59686
G1 X194.424 Y25.762 E120.63405
G1 X194.751 Y26.36 E120.65672
G1 X194.985 Y26.933 E120.6773
G1 X195.355 Y27.997 E120.71477
G1 X195.541 Y28.652 E120.73742
G1 X195.641 Y29.26 E120.75791
G1 X195.764 Y30.364 E120.79486
G1 X195.8 Y31.006 E120.81624
G1 X195.799 Y189.003 E126.07125
G1 X195.762 Y189.657 E126.09303
G1 X195.635 Y190.776 E126.13049
G1 X195.519 Y191.447 E126.15314
G1 X195.34 Y192.056 E126.17425
G1 X194.965 Y193.116 E126.21165
G1 X194.701 Y193.744 E126.23431
G1 X194.4 Y194.28 E126.25475
G1 X193.803 Y195.225 E126.29193
G1 X193.407 Y195.778 E126.31455
G1 X192.993 Y196.236 E126.33509
G1 X192.203 Y197.023 E126.37217
G1 X191.694 Y197.474 E126.39479
G1 X191.186 Y197.831 E126.41544
G1 X190.238 Y198.424 E126.45264
G1 X189.64 Y198.751 E126.4753
G1 X189.066 Y198.986 E126.49593
G1 X188.004 Y199.355 E126.53333
G1 X187.348 Y199.54 E126.556
G1 X186.745 Y199.64 E126.57633
G1 X185.637 Y199.764 E126.61341
G1 X184.992 Y199.8 E126.6349
G1 X34.997 Y199.799 E131.62375
G1 X34.339 Y199.762 E131.64567
G1 X33.218 Y199.634 E131.6832
G1 X32.547 Y199.517 E131.70585
G1 X31.943 Y199.339 E131.72679
G1 X30.885 Y198.965 E131.76412
G1 X30.257 Y198.701 E131.78677
G1 X29.72 Y198.4 E131.80725
G1 X28.775 Y197.803 E131.84443
G1 X28.222 Y197.407 E131.86705
G1 X27.764 Y196.993 E131.88758
G1 X26.977 Y196.203 E131.92467
G1 X26.526 Y195.694 E131.94729
G1 X26.169 Y195.186 E131.96794
G1 X25.576 Y194.238 E132.00513
